resources/svg/facebook.svg

<svg width="24" height="24" viewBox="0 0 24 24" fill="none" xmlns="http://www.w3.org/2000/svg">
<path fill-rule="evenodd" clip-rule="evenodd" d="M22 12C22 6.477 17.523 2 12 2C6.477 2 2 6.477 2 12C2 16.991 5.657 21.128 10.438 21.878V14.891H7.898V12H10.438V9.797C10.438 7.291 11.93 5.907 14.215 5.907C15.309 5.907 16.453 6.102 16.453 6.102V8.562H15.193C13.95 8.562 13.563 9.333 13.563 10.124V12H16.336L15.893 14.89H13.563V21.878C18.343 21.128 22 16.991 22 12Z" fill="#111827"/>
</svg>

<svg viewBox="0 0 24 24" xmlns="http://www.w3.org/2000/svg"><path d="m22 12c0-5.5-4.5-10-10-10s-10 4.5-10 10 3.7 9.1 8.4 9.9v-7h-2.5v-2.9h2.5v-2.2c0-2.5 1.5-3.9 3.8-3.9s2.2.2 2.2.2v2.5h-1.3c-1.2 0-1.6.8-1.6 1.6v1.9h2.8l-.4 2.9h-2.3v7c4.8-.8 8.4-4.9 8.4-9.9z"/></svg>
